svg/u1f469_1f3fb_200d_2764_200d_1f48b_200d_1f469_1f3fd.svg

<svg viewBox="0 0 128 128" xmlns="http://www.w3.org/2000/svg">
  <g>
    <g id="hair_607_">
      <path id="hair_608_" d="M67.5,124c-0.48-13.19,0.05-47.32,0.19-55.55c0-0.63-1.68-40.31,37.99-40.57 c7.24-0.05,13.27,1.08,18.32,3V124H67.5z" fill="#543930"/>
      <radialGradient id="hairHighlights_1_" cx="1230.4161" cy="94.5182" gradientTransform="matrix(-1 0 0 0.9979 1327.1893 0.194)" gradientUnits="userSpaceOnUse" r="34.5101">
        <stop offset="0.7945" stop-color="#6D4C41" stop-opacity="0"/>
        <stop offset="1" stop-color="#6D4C41"/>
      </radialGradient>
      <path id="hairHighlights_33_" d="M67.69,68.45c0-1.77,56.31,38.6,56.31,38.6V124H67.5 C67.02,110.81,67.55,76.68,67.69,68.45z" fill="url(#hairHighlights_1_)"/>
    </g>
    <g id="head_350_">
      <path d="M106.47,39.45L106.47,39.45L106.47,39.45c6.21,0,12.27,1.59,17.53,4.84v71.69 c-3.88,2.79-8.08,4.79-12.18,5.98c-3.59,1.04-6.42,1.56-11.42,1.56c-2.98,0-6.71-1.39-9.36-3c-11.72-7.13-19.31-18.02-19.31-39.23 C71.73,52.86,88.43,39.45,106.47,39.45z" fill="#BA8D68"/>
    </g>
    <g id="eyebrows_178_">
      <path d="M106.65,77.36c0.97-1.29,3.22-3.16,7.58-3.16c4.36,0,6.61,1.87,7.58,3.16 c0.43,0.57,0.32,1.23,0.02,1.62c-0.28,0.37-1.09,0.71-1.99,0.41c-0.9-0.31-2.66-1.22-5.61-1.24c-2.95,0.02-4.71,0.93-5.61,1.24 c-0.9,0.31-1.72-0.04-1.99-0.41C106.33,78.59,106.22,77.93,106.65,77.36z" fill="#613E31"/>
      <path d="M73.67,77.36c0.97-1.29,3.22-3.16,7.58-3.16c4.36,0,6.61,1.87,7.58,3.16 c0.43,0.57,0.32,1.23,0.02,1.62c-0.28,0.37-1.09,0.71-1.99,0.41c-0.9-0.31-2.66-1.22-5.61-1.24c-2.95,0.02-4.71,0.93-5.61,1.24 c-0.9,0.31-1.72-0.04-1.99-0.41C73.35,78.59,73.24,77.93,73.67,77.36z" fill="#613E31"/>
    </g>
    <g id="eyes_175_">
      <path d="M108.65,85.64c-0.67-0.79-1.07-0.16-1.2,0.36c-0.45,1.76,0.25,4.54,3.47,5.43 c4.36,1.2,8.76-1.42,9.25-4.98c0.06-0.44-0.43-0.77-0.82-0.55c-1.31,0.72-2.93,2.23-6.3,1.88 C109.76,87.45,109.37,86.49,108.65,85.64z" fill="#49362E"/>
      <path d="M75.8,85.64c-0.67-0.79-1.07-0.16-1.2,0.36c-0.45,1.76,0.25,4.54,3.47,5.43 c4.36,1.2,8.76-1.42,9.25-4.98c0.06-0.44-0.43-0.77-0.82-0.55c-1.31,0.72-2.93,2.23-6.3,1.88C76.92,87.45,76.52,86.49,75.8,85.64z " fill="#49362E"/>
    </g>
    <path id="mouth_103_" d="M91.65,114.85c-3.02,0.38-8.02-2.23-6.91-5.19c0.42-1.12,2.1-1.45,2.1-1.45 s-2.76-3.12-1.34-4.76c1.91-2.21,5.07-0.59,7.43-1.27c0.48-0.14,0.99-0.36,1.46-0.2c-0.2,0.94-0.76,1.62-1.95,2.04 c-1.34,0.47-2.8,0.2-3.54,0.83c-0.76,0.66-0.11,1.59,0.87,2.17c1.39,0.82,3.47,1.24,3.37,1.9c-0.11,0.72-2.49,0.8-3.02,0.95 c-0.48,0.14-1.18,0.32-1.39,0.83c-0.38,0.89,0.93,1.85,1.6,2.25c0.74,0.44,2.61,0.93,2.68,0.99c0.14,0.12,0.11,0.37-0.02,0.51 C92.86,114.6,91.94,114.81,91.65,114.85z" fill="#5D4037"/>
    <path id="nose_176_" d="M89.65,93.53c0.11-0.04,0.22-0.07,0.33-0.09h7.33c0.11,0.01,0.22,0.04,0.33,0.09 c0.66,0.27,1.03,0.96,0.72,1.69c-0.31,0.73-1.77,2.79-4.71,2.79c-2.94,0-4.4-2.06-4.71-2.79C88.62,94.49,88.99,93.8,89.65,93.53z" fill="#99674F"/>
    <g id="hair_601_">
      <path id="hair_586_" d="M67.69,68.45c0-0.63-2.36-40.02,37.99-40.57c7.23-0.1,13.27,1.06,18.32,3.04V74.2 c-4.45-5.54-10.85-19.78-10.85-19.78c-12.89,9.6-36.62,10.48-41.41,21.01c0,0-0.63,7.35,0.97,19.48c0,0-5.26-0.08-5.26-0.14 C67.16,86.06,67.69,76.53,67.69,68.45z" fill="#543930"/>
      <radialGradient id="hairHighlights_2_" cx="1223.4459" cy="86.4971" gradientTransform="matrix(-1 0 0 1.1286 1327.1893 -11.122)" gradientUnits="userSpaceOnUse" r="43.7467">
        <stop offset="0.7945" stop-color="#6D4C41" stop-opacity="0"/>
        <stop offset="1" stop-color="#6D4C41"/>
      </radialGradient>
      <path id="hairHighlights_32_" d="M67.69,68.45c0-0.63-2.36-40.02,37.99-40.57 c7.23-0.1,13.27,1.06,18.32,3.04V74.2c-4.45-5.54-10.85-19.78-10.85-19.78c-12.89,9.6-36.62,10.48-41.41,21.01 c0,0-0.63,7.35,0.97,19.48c0,0-5.26-0.08-5.26-0.14C67.16,86.06,67.69,76.53,67.69,68.45z" fill="url(#hairHighlights_2_)"/>
    </g>
  </g>
  <g>
    <g id="hair_599_">
      <path id="hair_600_" d="M60.5,124c0.48-13.19-0.05-47.32-0.19-55.55c0-0.63,1.68-40.31-37.99-40.57 c-7.24-0.05-13.27,1.08-18.32,3V124H60.5z" fill="#312D2D"/>
      <radialGradient id="hairHighlights_3_" cx="31.2265" cy="94.5182" gradientTransform="matrix(1 0 0 0.9979 0 0.194)" gradientUnits="userSpaceOnUse" r="34.5101">
        <stop offset="0.7945" stop-color="#454140" stop-opacity="0"/>
        <stop offset="1" stop-color="#454140"/>
      </radialGradient>
      <path id="hairHighlights_31_" d="M60.31,68.45c0-1.77-56.31,38.6-56.31,38.6V124h56.5 C60.98,110.81,60.45,76.68,60.31,68.45z" fill="url(#hairHighlights_3_)"/>
    </g>
    <g id="head_349_">
      <path d="M21.53,39.45L21.53,39.45L21.53,39.45c-6.21,0-12.27,1.59-17.53,4.84v71.69 c3.88,2.79,8.08,4.79,12.18,5.98c3.59,1.04,6.42,1.56,11.42,1.56c2.98,0,6.71-1.39,9.36-3c11.72-7.13,19.31-18.02,19.31-39.23 C56.27,52.86,39.57,39.45,21.53,39.45z" fill="#F9DDBD"/>
    </g>
    <g id="eyebrows_177_">
      <path d="M21.35,77.36c-0.97-1.29-3.22-3.16-7.58-3.16s-6.61,1.87-7.58,3.16c-0.43,0.57-0.32,1.23-0.02,1.62 c0.28,0.37,1.09,0.71,1.99,0.41c0.9-0.31,2.66-1.22,5.61-1.24c2.95,0.02,4.71,0.93,5.61,1.24c0.9,0.31,1.72-0.04,1.99-0.41 C21.67,78.59,21.78,77.93,21.35,77.36z" fill="#454140"/>
      <path d="M54.33,77.36c-0.97-1.29-3.22-3.16-7.58-3.16s-6.61,1.87-7.58,3.16c-0.43,0.57-0.32,1.23-0.02,1.62 c0.28,0.37,1.09,0.71,1.99,0.41c0.9-0.31,2.66-1.22,5.61-1.24c2.95,0.02,4.71,0.93,5.61,1.24c0.9,0.31,1.72-0.04,1.99-0.41 C54.65,78.59,54.76,77.93,54.33,77.36z" fill="#454140"/>
    </g>
    <g id="eyes_174_">
      <path d="M19.35,85.64c0.67-0.79,1.07-0.16,1.2,0.36c0.45,1.76-0.25,4.54-3.47,5.43 c-4.36,1.2-8.76-1.42-9.25-4.98c-0.06-0.44,0.43-0.77,0.82-0.55c1.31,0.72,2.93,2.23,6.3,1.88 C18.23,87.45,18.63,86.49,19.35,85.64z" fill="#312D2D"/>
      <path d="M52.2,85.64c0.67-0.79,1.07-0.16,1.2,0.36c0.45,1.76-0.25,4.54-3.47,5.43 c-4.36,1.2-8.76-1.42-9.25-4.98c-0.06-0.44,0.43-0.77,0.82-0.55c1.31,0.72,2.93,2.23,6.3,1.88C51.08,87.45,51.48,86.49,52.2,85.64 z" fill="#312D2D"/>
    </g>
    <path id="mouth_102_" d="M36.35,114.85c3.02,0.38,8.02-2.23,6.91-5.19c-0.42-1.12-2.1-1.45-2.1-1.45 s2.76-3.12,1.34-4.76c-1.91-2.21-5.07-0.59-7.43-1.27c-0.48-0.14-0.99-0.36-1.46-0.2c0.2,0.94,0.76,1.62,1.95,2.04 c1.34,0.47,2.8,0.2,3.54,0.83c0.76,0.66,0.11,1.59-0.87,2.17c-1.39,0.82-3.47,1.24-3.37,1.9c0.11,0.72,2.49,0.8,3.02,0.95 c0.48,0.14,1.18,0.32,1.39,0.83c0.38,0.89-0.93,1.85-1.6,2.25c-0.74,0.44-2.61,0.93-2.68,0.99c-0.14,0.12-0.11,0.37,0.02,0.51 C35.14,114.6,36.06,114.81,36.35,114.85z" fill="#444444"/>
    <path id="nose_175_" d="M38.35,93.53c-0.11-0.04-0.22-0.07-0.33-0.09h-7.33c-0.11,0.01-0.22,0.04-0.33,0.09 c-0.66,0.27-1.03,0.96-0.72,1.69c0.31,0.73,1.77,2.79,4.71,2.79c2.94,0,4.4-2.06,4.71-2.79C39.37,94.49,39.01,93.8,38.35,93.53z" fill="#DBA689"/>
    <g id="hair_597_">
      <path id="hair_598_" d="M60.31,68.45c0-0.63,2.36-40.02-37.99-40.57C15.09,27.78,9.05,28.94,4,30.92v45.73 c0.57-2.44,2.53-6.75,9.27-8.17c20.37-4.31,28.6-14.06,28.6-14.06c3.45,7.53,17.17,8.56,13.43,40.48c0,0,5.26-0.08,5.26-0.14 C60.83,86.06,60.31,76.53,60.31,68.45z" fill="#312D2D"/>
      <radialGradient id="hairHighlights_4_" cx="24.2562" cy="86.4971" gradientTransform="matrix(1 0 0 1.1286 0 -11.122)" gradientUnits="userSpaceOnUse" r="43.7467">
        <stop offset="0.7945" stop-color="#454140" stop-opacity="0"/>
        <stop offset="1" stop-color="#454140"/>
      </radialGradient>
      <path id="hairHighlights_30_" d="M60.31,68.45c0-0.63,2.36-40.02-37.99-40.57 C15.09,27.78,9.05,28.94,4,30.92v45.73c0.57-2.44,2.53-6.75,9.27-8.17c20.37-4.31,28.6-14.06,28.6-14.06 c3.45,7.53,17.17,8.56,13.43,40.48c0,0,5.26-0.08,5.26-0.14C60.83,86.06,60.31,76.53,60.31,68.45z" fill="url(#hairHighlights_4_)"/>
    </g>
  </g>
  <g>
    <path d="M78.41,3.74C67.87,3.74,64,14.5,64,14.5S60.18,3.74,49.57,3.74c-7.97,0-17.07,6.32-13.71,20.68 c3.36,14.36,28.16,32.26,28.16,32.26s24.72-17.9,28.08-32.26C95.46,10.06,87.02,3.74,78.41,3.74z" fill="#EF5592"/>
    <g>
      <path d="M47.94,4.81c8.27,0,12.38,8.89,13.71,12.5c0.19,0.51,0.91,0.53,1.12,0.03l1.21-2.83 c-1.71-5.45-6.4-10.77-14.41-10.77c-3.32,0-6.82,1.1-9.55,3.41C42.42,5.56,45.25,4.81,47.94,4.81z" fill="#DA2E75"/>
      <path d="M78.41,3.74c-2.55,0-4.7,0.74-6.51,1.85c1.27-0.49,2.68-0.78,4.23-0.78 c7.8,0,14.77,5.91,11.62,19.58c-2.7,11.73-18.5,25.96-23.32,31.39c-0.31,0.35-0.41,0.91-0.41,0.91s24.72-17.9,28.08-32.26 C95.46,10.06,86.38,3.74,78.41,3.74z" fill="#DA2E75"/>
    </g>
    <path d="M41.4,11.36c1.8-2.25,5.03-4.11,7.76-1.97c1.48,1.16,0.83,3.54-0.49,4.54 c-1.93,1.46-3.6,2.34-4.77,4.63c-0.7,1.38-1.13,2.88-1.34,4.42c-0.08,0.61-0.88,0.75-1.18,0.22 C39.34,19.6,38.77,14.65,41.4,11.36z" fill="#F386AB"/>
    <path d="M70.31,16.09c-0.85,0-1.44-0.82-1.13-1.61c0.57-1.45,1.31-2.86,2.2-4.11 c1.32-1.85,3.82-2.92,5.41-1.81c1.63,1.15,1.42,3.43,0.27,4.54C74.61,15.49,71.53,16.09,70.31,16.09z" fill="#F386AB"/>
  </g>
</svg>

<svg viewBox="0 0 128 128" xmlns="http://www.w3.org/2000/svg">
  <defs>
    <radialGradient id="hairHighlights_1_" cx="-96.7732" cy="94.712608" gradientTransform="matrix(-1 0 0 0.9979 0 0)" gradientUnits="userSpaceOnUse" r="34.5101">
      <stop offset="0.7945" stop-color="#6D4C41" stop-opacity="0"/>
      <stop offset="1" stop-color="#6D4C41"/>
    </radialGradient>
    <radialGradient id="hairHighlights_2_" cx="-103.7434" cy="76.642413" gradientTransform="matrix(-1 0 0 1.1286 0 0)" gradientUnits="userSpaceOnUse" r="43.7467">
      <stop offset="0.7945" stop-color="#6D4C41" stop-opacity="0"/>
      <stop offset="1" stop-color="#6D4C41"/>
    </radialGradient>
    <radialGradient id="hairHighlights_3_" cx="31.2265" cy="94.712608" gradientTransform="matrix(1 0 0 0.9979 0 0)" gradientUnits="userSpaceOnUse" r="34.5101">
      <stop offset="0.7945" stop-color="#454140" stop-opacity="0"/>
      <stop offset="1" stop-color="#454140"/>
    </radialGradient>
    <radialGradient id="hairHighlights_4_" cx="24.2562" cy="76.642413" gradientTransform="matrix(1 0 0 1.1286 0 0)" gradientUnits="userSpaceOnUse" r="43.7467">
      <stop offset="0.7945" stop-color="#454140" stop-opacity="0"/>
      <stop offset="1" stop-color="#454140"/>
    </radialGradient>
  </defs>
  <path id="hair_608_" d="M67.5,124 C67.02,110.81 67.55,76.68 67.69,68.45 C67.69,67.82 66.01,28.14 105.68,27.88 C112.92,27.83 118.95,28.96 124,30.88 L124,124 L67.5,124 Z" fill="#543930"/>
  <path id="hairHighlights_33_" d="M67.69,68.45 C67.69,66.68 124,107.05 124,107.05 L124,124 L67.5,124 C67.02,110.81 67.55,76.68 67.69,68.45 Z" fill="url(#hairHighlights_1_)"/>
  <path d="M106.47,39.45 L106.47,39.45 L106.47,39.45 C112.68,39.45 118.74,41.04 124,44.29 L124,115.98 C120.12,118.77 115.92,120.77 111.82,121.96 C108.23,123 105.4,123.52 100.4,123.52 C97.42,123.52 93.69,122.13 91.04,120.52 C79.32,113.39 71.73,102.5 71.73,81.29 C71.73,52.86 88.43,39.45 106.47,39.45 Z" fill="#BA8D68"/>
  <path d="M106.65,77.36 C107.62,76.07 109.87,74.2 114.23,74.2 C118.59,74.2 120.84,76.07 121.81,77.36 C122.24,77.93 122.13,78.59 121.83,78.98 C121.55,79.35 120.74,79.69 119.84,79.39 C118.94,79.08 117.18,78.17 114.23,78.15 C111.28,78.17 109.52,79.08 108.62,79.39 C107.72,79.7 106.9,79.35 106.63,78.98 C106.33,78.59 106.22,77.93 106.65,77.36 Z" fill="#613E31"/>
  <path d="M73.67,77.36 C74.64,76.07 76.89,74.2 81.25,74.2 C85.61,74.2 87.86,76.07 88.83,77.36 C89.26,77.93 89.15,78.59 88.85,78.98 C88.57,79.35 87.76,79.69 86.86,79.39 C85.96,79.08 84.2,78.17 81.25,78.15 C78.3,78.17 76.54,79.08 75.64,79.39 C74.74,79.7 73.92,79.35 73.65,78.98 C73.35,78.59 73.24,77.93 73.67,77.36 Z" fill="#613E31"/>
  <path d="M108.65,85.64 C107.98,84.85 107.58,85.48 107.45,86 C107,87.76 107.7,90.54 110.92,91.43 C115.28,92.63 119.68,90.01 120.17,86.45 C120.23,86.01 119.74,85.68 119.35,85.9 C118.04,86.62 116.42,88.13 113.05,87.78 C109.76,87.45 109.37,86.49 108.65,85.64 Z" fill="#49362E"/>
  <path d="M75.8,85.64 C75.13,84.85 74.73,85.48 74.6,86 C74.15,87.76 74.85,90.54 78.07,91.43 C82.43,92.63 86.83,90.01 87.32,86.45 C87.38,86.01 86.89,85.68 86.5,85.9 C85.19,86.62 83.57,88.13 80.2,87.78 C76.92,87.45 76.52,86.49 75.8,85.64 Z" fill="#49362E"/>
  <path id="mouth_103_" d="M91.65,114.85 C88.63,115.23 83.63,112.62 84.74,109.66 C85.16,108.54 86.84,108.21 86.84,108.21 C86.84,108.21 84.08,105.09 85.5,103.45 C87.41,101.24 90.57,102.86 92.93,102.18 C93.41,102.04 93.92,101.82 94.39,101.98 C94.19,102.92 93.63,103.6 92.44,104.02 C91.1,104.49 89.64,104.22 88.9,104.85 C88.14,105.51 88.79,106.44 89.77,107.02 C91.16,107.84 93.24,108.26 93.14,108.92 C93.03,109.64 90.65,109.72 90.12,109.87 C89.64,110.01 88.94,110.19 88.73,110.7 C88.35,111.59 89.66,112.55 90.33,112.95 C91.07,113.39 92.94,113.88 93.01,113.94 C93.15,114.06 93.12,114.31 92.99,114.45 C92.86,114.6 91.94,114.81 91.65,114.85 Z" fill="#5D4037"/>
  <path id="nose_176_" d="M89.65,93.53 C89.76,93.49 89.87,93.46 89.98,93.44 L97.31,93.44 C97.42,93.45 97.53,93.48 97.64,93.53 C98.3,93.8 98.67,94.49 98.36,95.22 C98.05,95.95 96.59,98.01 93.65,98.01 C90.71,98.01 89.25,95.95 88.94,95.22 C88.62,94.49 88.99,93.8 89.65,93.53 Z" fill="#99674F"/>
  <path id="hair_586_" d="M67.69,68.45 C67.69,67.82 65.33,28.43 105.68,27.88 C112.91,27.78 118.95,28.94 124,30.92 L124,74.2 C119.55,68.66 113.15,54.42 113.15,54.42 C100.26,64.02 76.53,64.9 71.74,75.43 C71.74,75.43 71.11,82.78 72.71,94.91 C72.71,94.91 67.45,94.83 67.45,94.77 C67.16,86.06 67.69,76.53 67.69,68.45 Z" fill="#543930"/>
  <path id="hairHighlights_32_" d="M67.69,68.45 C67.69,67.82 65.33,28.43 105.68,27.88 C112.91,27.78 118.95,28.94 124,30.92 L124,74.2 C119.55,68.66 113.15,54.42 113.15,54.42 C100.26,64.02 76.53,64.9 71.74,75.43 C71.74,75.43 71.11,82.78 72.71,94.91 C72.71,94.91 67.45,94.83 67.45,94.77 C67.16,86.06 67.69,76.53 67.69,68.45 Z" fill="url(#hairHighlights_2_)"/>
  <path id="hair_600_" d="M60.5,124 C60.98,110.81 60.45,76.68 60.31,68.45 C60.31,67.82 61.99,28.14 22.32,27.88 C15.08,27.83 9.05,28.96 4,30.88 L4,124 L60.5,124 Z" fill="#312D2D"/>
  <path id="hairHighlights_31_" d="M60.31,68.45 C60.31,66.68 4,107.05 4,107.05 L4,124 L60.5,124 C60.98,110.81 60.45,76.68 60.31,68.45 Z" fill="url(#hairHighlights_3_)"/>
  <path d="M21.53,39.45 L21.53,39.45 L21.53,39.45 C15.32,39.45 9.26,41.04 4,44.29 L4,115.98 C7.88,118.77 12.08,120.77 16.18,121.96 C19.77,123 22.6,123.52 27.6,123.52 C30.58,123.52 34.31,122.13 36.96,120.52 C48.68,113.39 56.27,102.5 56.27,81.29 C56.27,52.86 39.57,39.45 21.53,39.45 Z" fill="#F9DDBD"/>
  <path d="M21.35,77.36 C20.38,76.07 18.13,74.2 13.77,74.2 C9.41,74.2 7.16,76.07 6.19,77.36 C5.76,77.93 5.87,78.59 6.17,78.98 C6.45,79.35 7.26,79.69 8.16,79.39 C9.06,79.08 10.82,78.17 13.77,78.15 C16.72,78.17 18.48,79.08 19.38,79.39 C20.28,79.7 21.1,79.35 21.37,78.98 C21.67,78.59 21.78,77.93 21.35,77.36 Z" fill="#454140"/>
  <path d="M54.33,77.36 C53.36,76.07 51.11,74.2 46.75,74.2 C42.39,74.2 40.14,76.07 39.17,77.36 C38.74,77.93 38.85,78.59 39.15,78.98 C39.43,79.35 40.24,79.69 41.14,79.39 C42.04,79.08 43.8,78.17 46.75,78.15 C49.7,78.17 51.46,79.08 52.36,79.39 C53.26,79.7 54.08,79.35 54.35,78.98 C54.65,78.59 54.76,77.93 54.33,77.36 Z" fill="#454140"/>
  <path d="M19.35,85.64 C20.02,84.85 20.42,85.48 20.55,86 C21,87.76 20.3,90.54 17.08,91.43 C12.72,92.63 8.32,90.01 7.83,86.45 C7.77,86.01 8.26,85.68 8.65,85.9 C9.96,86.62 11.58,88.13 14.95,87.78 C18.23,87.45 18.63,86.49 19.35,85.64 Z" fill="#312D2D"/>
  <path d="M52.2,85.64 C52.87,84.85 53.27,85.48 53.4,86 C53.85,87.76 53.15,90.54 49.93,91.43 C45.57,92.63 41.17,90.01 40.68,86.45 C40.62,86.01 41.11,85.68 41.5,85.9 C42.81,86.62 44.43,88.13 47.8,87.78 C51.08,87.45 51.48,86.49 52.2,85.64 Z" fill="#312D2D"/>
  <path id="mouth_102_" d="M36.35,114.85 C39.37,115.23 44.37,112.62 43.26,109.66 C42.84,108.54 41.16,108.21 41.16,108.21 C41.16,108.21 43.92,105.09 42.5,103.45 C40.59,101.24 37.43,102.86 35.07,102.18 C34.59,102.04 34.08,101.82 33.61,101.98 C33.81,102.92 34.37,103.6 35.56,104.02 C36.9,104.49 38.36,104.22 39.1,104.85 C39.86,105.51 39.21,106.44 38.23,107.02 C36.84,107.84 34.76,108.26 34.86,108.92 C34.97,109.64 37.35,109.72 37.88,109.87 C38.36,110.01 39.06,110.19 39.27,110.7 C39.65,111.59 38.34,112.55 37.67,112.95 C36.93,113.39 35.06,113.88 34.99,113.94 C34.85,114.06 34.88,114.31 35.01,114.45 C35.14,114.6 36.06,114.81 36.35,114.85 Z" fill="#444444"/>
  <path id="nose_175_" d="M38.35,93.53 C38.24,93.49 38.13,93.46 38.02,93.44 L30.69,93.44 C30.58,93.45 30.47,93.48 30.36,93.53 C29.7,93.8 29.33,94.49 29.64,95.22 C29.95,95.95 31.41,98.01 34.35,98.01 C37.29,98.01 38.75,95.95 39.06,95.22 C39.37,94.49 39.01,93.8 38.35,93.53 Z" fill="#DBA689"/>
  <path id="hair_598_" d="M60.31,68.45 C60.31,67.82 62.67,28.43 22.32,27.88 C15.09,27.78 9.05,28.94 4,30.92 L4,76.65 C4.57,74.21 6.53,69.9 13.27,68.48 C33.64,64.17 41.87,54.42 41.87,54.42 C45.32,61.95 59.04,62.98 55.3,94.9 C55.3,94.9 60.56,94.82 60.56,94.76 C60.83,86.06 60.31,76.53 60.31,68.45 Z" fill="#312D2D"/>
  <path id="hairHighlights_30_" d="M60.31,68.45 C60.31,67.82 62.67,28.43 22.32,27.88 C15.09,27.78 9.05,28.94 4,30.92 L4,76.65 C4.57,74.21 6.53,69.9 13.27,68.48 C33.64,64.17 41.87,54.42 41.87,54.42 C45.32,61.95 59.04,62.98 55.3,94.9 C55.3,94.9 60.56,94.82 60.56,94.76 C60.83,86.06 60.31,76.53 60.31,68.45 Z" fill="url(#hairHighlights_4_)"/>
  <path d="M78.41,3.74 C67.87,3.74 64,14.5 64,14.5 C64,14.5 60.18,3.74 49.57,3.74 C41.6,3.74 32.5,10.06 35.86,24.42 C39.22,38.78 64.02,56.68 64.02,56.68 C64.02,56.68 88.74,38.78 92.1,24.42 C95.46,10.06 87.02,3.74 78.41,3.74 Z" fill="#EF5592"/>
  <path d="M47.94,4.81 C56.21,4.81 60.32,13.7 61.65,17.31 C61.84,17.82 62.56,17.84 62.77,17.34 L63.98,14.51 C62.27,9.06 57.58,3.74 49.57,3.74 C46.25,3.74 42.75,4.84 40.02,7.15 C42.42,5.56 45.25,4.81 47.94,4.81 Z" fill="#DA2E75"/>
  <path d="M78.41,3.74 C75.86,3.74 73.71,4.48 71.9,5.59 C73.17,5.1 74.58,4.81 76.13,4.81 C83.93,4.81 90.9,10.72 87.75,24.39 C85.05,36.12 69.25,50.35 64.43,55.78 C64.12,56.13 64.02,56.69 64.02,56.69 C64.02,56.69 88.74,38.79 92.1,24.43 C95.46,10.06 86.38,3.74 78.41,3.74 Z" fill="#DA2E75"/>
  <path d="M41.4,11.36 C43.2,9.11 46.43,7.25 49.16,9.39 C50.64,10.55 49.99,12.93 48.67,13.93 C46.74,15.39 45.07,16.27 43.9,18.56 C43.2,19.94 42.77,21.44 42.56,22.98 C42.48,23.59 41.68,23.73 41.38,23.2 C39.34,19.6 38.77,14.65 41.4,11.36 Z" fill="#F386AB"/>
  <path d="M70.31,16.09 C69.46,16.09 68.87,15.27 69.18,14.48 C69.75,13.03 70.49,11.62 71.38,10.37 C72.7,8.52 75.2,7.45 76.79,8.56 C78.42,9.71 78.21,11.99 77.06,13.1 C74.61,15.49 71.53,16.09 70.31,16.09 Z" fill="#F386AB"/>
</svg>
